img/svgicons/instagram.svg

<svg width="13" height="13" viewBox="0 0 13 13" fill="none" xmlns="http://www.w3.org/2000/svg">
<g clip-path="url(#clip0_195_795)">
<path d="M9.48744 0H3.51256C1.57574 0 0 1.57574 0 3.51256V9.48744C0 11.4243 1.57574 13 3.51256 13H9.48744C11.4243 13 13 11.4243 13 9.48744V3.51256C13 1.57574 11.4243 0 9.48744 0ZM11.9497 9.48744C11.9497 10.8451 10.8452 11.9497 9.48744 11.9497H3.51256C2.15485 11.9497 1.05026 10.8452 1.05026 9.48744V3.51256C1.05026 2.15485 2.15483 1.05026 3.51256 1.05026H9.48744C10.8451 1.05026 11.9497 2.15483 11.9497 3.51256V9.48744Z" fill="#323232"/>
<path d="M9.40936 6.04654C9.31694 5.42327 9.03259 4.85838 8.58706 4.41285C8.14153 3.96735 7.57664 3.68297 6.9534 3.59058C6.66964 3.5485 6.38194 3.5485 6.0982 3.59058C5.32795 3.70481 4.64832 4.11212 4.18445 4.73752C3.72059 5.36292 3.52801 6.13154 3.64224 6.90174C3.75647 7.67197 4.16379 8.3516 4.78918 8.81548C5.29689 9.19205 5.89891 9.3898 6.51963 9.3898C6.66352 9.3898 6.80845 9.37918 6.95338 9.35768C7.72363 9.24344 8.40326 8.83613 8.86712 8.21073C9.33101 7.58536 9.5236 6.81676 9.40936 6.04654ZM6.79933 8.31877C6.30663 8.39194 5.81494 8.26867 5.41486 7.97193C5.01478 7.67519 4.75422 7.2404 4.68117 6.7477C4.6081 6.25499 4.73127 5.7633 5.02801 5.36322C5.32477 4.96314 5.75954 4.70258 6.25227 4.62951C6.34301 4.61605 6.43439 4.60932 6.52578 4.60932C6.61716 4.60932 6.70856 4.61605 6.79931 4.62953C7.61767 4.75088 8.24906 5.38224 8.37043 6.20063C8.52125 7.21773 7.81648 8.16795 6.79933 8.31877Z" fill="#323232"/>
<path d="M10.1575 2.84248C10.0597 2.7447 9.92432 2.68866 9.78614 2.68866C9.64797 2.68866 9.51261 2.74467 9.4148 2.84248C9.31702 2.94028 9.26099 3.07541 9.26099 3.21381C9.26099 3.35222 9.31702 3.48735 9.4148 3.58515C9.51261 3.68293 9.64797 3.73897 9.78614 3.73897C9.92432 3.73897 10.0597 3.68296 10.1575 3.58515C10.2553 3.48735 10.3113 3.35199 10.3113 3.21381C10.3113 3.07561 10.2553 2.94026 10.1575 2.84248Z" fill="#323232"/>
</g>
<defs>
<clipPath id="clip0_195_795">
<rect width="13" height="13" fill="white"/>
</clipPath>
</defs>
</svg>

<svg width="13" height="13" fill="none" xmlns="http://www.w3.org/2000/svg"><g clip-path="url(#a)" fill="#323232"><path d="M9.487 0H3.513A3.517 3.517 0 0 0 0 3.513v5.974A3.517 3.517 0 0 0 3.513 13h5.974A3.517 3.517 0 0 0 13 9.487V3.513A3.517 3.517 0 0 0 9.487 0Zm2.463 9.487a2.465 2.465 0 0 1-2.463 2.463H3.513A2.465 2.465 0 0 1 1.05 9.487V3.513A2.465 2.465 0 0 1 3.513 1.05h5.974a2.465 2.465 0 0 1 2.463 2.463v5.974Z"/><path d="M9.41 6.047a2.895 2.895 0 0 0-.823-1.634 2.913 2.913 0 0 0-4.403.325 2.896 2.896 0 0 0-.542 2.164c.114.77.522 1.45 1.147 1.913a2.893 2.893 0 0 0 2.164.543A2.896 2.896 0 0 0 8.867 8.21a2.896 2.896 0 0 0 .542-2.164ZM6.8 8.319a1.852 1.852 0 0 1-1.385-.347c-.4-.297-.66-.732-.734-1.224-.073-.493.05-.985.347-1.385a1.853 1.853 0 0 1 1.771-.733c.819.12 1.45.752 1.571 1.57A1.867 1.867 0 0 1 6.8 8.32ZM10.158 2.842a.529.529 0 0 0-.743 0 .528.528 0 0 0 0 .743.529.529 0 0 0 .743 0 .529.529 0 0 0 0-.743Z"/></g><defs><clipPath id="a"><path fill="#fff" d="M0 0h13v13H0z"/></clipPath></defs></svg>
